X: 1
T: Bummer's, The
M: 4/4
L: 1/8
R: reel
K: Gmaj
|: DGGF GBAF | Gged edBG | DFAF ABAF | Gged edBA | 
DGGF G2BA | Gged edBG | DFAF ABcB |1 ABAF G4 :|2 ABAF G2Bd ||
|: e2ef gfed | dBBe dBGB | (3ABA AB cBAF | GABc d2Bd |
edef edBd | dBBe dBGB | (3ABA AB cBAF |1 G2GA G2Bd :|2 G2GA G4 ||
